X:1
T:Title
%%score { ( 1 4 ) | ( 2 3 ) }
L:1/8
Q:1/4=100
M:2/4
K:Bb
V:1 treble nm="Grand Piano"
V:4 treble 
V:2 bass 
V:3 bass 
V:1
 [DF]2 [DG]2 | [DF]3 [Fd] | d2 c2 | F4 | A2 A2 | B3 B | [Ec]2 [DB]2 | [DF]4 | [Fd]2 [Fd]2 | %9
w: E.~O.~Excell *|||||||||
 [Ec]3 [Ec] | [=Ec]2 [EG]2 | B2 A2 | G2 F2 | [DB]2 F2 | c2 F2 | d4 | [Fd]2 [DF][DF] | =E4 | c2 z2 | %19
w: ||||||||||
 [DB]4[K:bass] | B2 A2 | B2 c2 | [Fd]3 [Ec] | [Fd]4 | [Fd]2 [DF][DF] | =E4 | c2 z2 | %27
w: ||||||||
 [DB]4[K:bass] | B2 A2 | B2 c2 | d3 c | [DB]4 |] %32
w: |||||
V:2
 [B,,B,]2 [B,,B,]2 | [B,,B,]3 [B,,B,] | [F,B,F]2 [F,A,E]2 | [F,A,E]4 | [F,CE]2 [F,CE]2 | %5
 [F,B,D]3 [F,B,D] | [B,,B,]2 [B,,B,]2 | [B,,B,]4 | [B,,B,]2 [B,,B,]2 | [E,G,]3 [E,G,] | %10
 [C,G,]2 [C,C]2 | E2 E2 | [F,B,E]2 [F,A,E]2 | [B,,B,]2 [D,B,]2 | [F,A,E]2 [F,A,E]2 | [B,,F,B,]4 | %16
 [B,,B,][B,,B,] [B,,B,][B,,B,] | [C,G,]C, C,2 | E4 | [B,,B,]B,, B,,2 | [F,D]2 [F,C]2 | %21
 [F,D]2 [F,E]2 | B,,3 [B,,B,] | [B,,B,]4 | [B,,B,][B,,B,] [B,,B,][B,,B,] | [C,G,]C, C,2 | E4 | %27
 [B,,B,]B,, B,,2 | [F,D]2 [F,C]2 | [F,D]2 [F,E]2 | [F,F]3 [F,A,E] | [B,,B,]4 |] %32
V:3
 x4 | x4 | x4 | x4 | x4 | x4 | x4 | x4 | x4 | x4 | x4 | [F,C]4 | x4 | x4 | x4 | x4 | x4 | x4 | %18
 [F,A,]F, [F,A,][F,A,E] | x4 | x4 | x4 | x4 | x4 | x4 | x4 | [F,A,]F, [F,A,][F,A,E] | x4 | x4 | %29
 x4 | x4 | x4 |] %32
V:4
 x4 | x4 | x4 | x4 | x4 | x4 | x4 | x4 | x4 | x4 | x4 | x4 | x4 | x4 | x4 | D2 F2 | x4 | z G, B,2 | %18
 z A, FF | z[K:bass] B, F,2 | x4 | x4 | x4 | x4 | x4 | z G, B,2 | z A, FF | z[K:bass] B, F,2 | x4 | %29
 x4 | x4 | x4 |] %32

